X:45
T:The Congress reel
R:Reel
S:My arrangement from various sources
Z:Transcription, arrangement, chords:Mike Long
M:C|
L:1/8
K:G
"Am"eAAG A2(3(Bcd)|"Am"eaaf "G"gedg|"F/Am"eA~A2 eA~A2|"G"BG~G2 GABd|\
"Am"eAAG A2Bd|"Am"eaaf "G"gedB|
"F"cBcd eged|"E/G"cABG "Am"A2Bd:|\
|:"Am"eaag a2ag|eaaf gedg|"G"egdg egdg|
"Em"eaaf gedg|\
"Am"eaag a2 ag|"Am"eaaf "G"gedB|"F"cBcd eged|"E/G"cABG "Am"A2Bd:|
